X: 21103
T: SIR JOHN MALCOLM -- Strathspey
R: strathspey
B: K\"ohler's Violin Repository, v.2, 1885 p.110 #3
F: http://www.archive.org/details/klersviolinrepos02rugg
Z: 2012 John Chambers <jc:trillian.mit.edu>
M: C|
L: 1/8
K: Bm
ud |\
(.A>.B)(d>e) (.f>.d)(e>f) | A<A(A>F) A2A>B |\
(.A>.B)(d>e) (.f>.d)(e>f) | B<B(d>A) B2B :|
ub |\
(.a>.b)(a>f) (.e>.d)(e>f) | A<A(A>F) A2 A>b |\
(.a>.b)(a>f) (.e>.d)(e>f) | B<B (d>A) B2Bb |
(.a>.b)(a>f) (.e.d)(ef) | A<A(A>F) A2A>B |\
(.A>.B)(d>e) (f<a) (e<f) | (.d>.B) (d/c/)B/^A/ "_Segue Reel."B2B "D.C."|]

%%sep 2 1 500

